dist/assets/images/product-icons/3d-printer.svg

<svg width="105" height="106" viewBox="0 0 105 106" fill="none" xmlns="http://www.w3.org/2000/svg">
<g opacity="0.6">
<mask id="path-1-inside-1_240_2120" fill="white">
<path fill-rule="evenodd" clip-rule="evenodd" d="M14.7586 0.320294C11.5142 1.19655 8.95632 4.11042 8.39535 7.56925C8.27291 8.32355 8.19702 25.1351 8.1964 51.673L8.19517 94.5578L7.4775 94.6754C6.35413 94.8595 4.21221 96.0171 3.22093 96.976C1.3118 98.8227 0.276216 100.971 0.0536758 103.548C-0.0574918 104.834 -0.0298025 104.962 0.466145 105.463L0.997781 106H52.4982H103.999L104.502 105.492C105.064 104.924 105.131 104.253 104.8 102.456C104.163 98.985 101.05 95.5328 97.8695 94.7702L96.8057 94.5151L96.7521 58.0403C96.7 22.5028 96.6885 21.5543 96.3079 21.1296C95.7766 20.537 94.5439 20.537 94.0127 21.1296C93.632 21.5543 93.6206 22.5014 93.5691 57.9852L93.516 94.405H52.4965H11.4769L11.4789 50.9754L11.481 7.54586L11.9595 6.51059C12.4899 5.36309 13.7907 4.06466 14.935 3.53998C15.6204 3.22567 18.697 3.19772 52.4982 3.19772C86.2993 3.19772 89.3759 3.22567 90.0613 3.53998C91.2056 4.06466 92.5064 5.36309 93.0368 6.51059C93.4887 7.48788 93.5157 7.78335 93.5205 11.7905C93.5258 16.3771 93.63 16.9175 94.5718 17.2519C95.4339 17.5579 96.1752 17.2501 96.507 16.4486C96.8598 15.5961 96.9107 10.027 96.5864 7.75291C96.0669 4.10897 93.5541 1.20628 90.1434 0.309734C89.0598 0.024828 84.7743 -0.0101641 52.4038 0.00205208C20.9358 0.0138541 15.7308 0.0577496 14.7586 0.320294ZM18.1192 13.9888C16.9087 14.4221 15.5995 15.6396 15.0404 16.8517L14.5576 17.8986L14.5555 35.8143C14.5533 55.3064 14.5016 54.4367 15.6809 54.7355C16.239 54.8769 16.9602 54.5825 17.3671 54.0475C17.5568 53.798 17.6186 50.7903 17.6235 41.5545L17.6301 29.39H22.0999H26.5696L26.803 30.2709C27.1236 31.4807 28.1299 32.8162 29.0955 33.3135L29.901 33.7282L29.9699 36.1092C30.0624 39.2943 30.1608 39.404 33.0184 39.5034L35.0641 39.5744V42.2239C35.0641 45.9392 34.9534 45.8307 38.8405 45.9179L41.8339 45.985L42.4486 45.3645L43.0633 44.7439V42.1398V39.5357H44.6908C46.4362 39.5357 47.2811 39.3158 47.7063 38.7512C47.887 38.511 47.9749 37.6542 47.9793 36.0926L47.9858 33.7885L48.572 33.5433C49.528 33.1435 50.6721 31.7962 51.0743 30.5965L51.4443 29.4936L69.4053 29.4408L87.3662 29.3878V51.1224V72.8569L86.7505 73.5648C86.4121 73.9541 85.9506 74.3214 85.725 74.3808C85.3443 74.4814 85.3152 74.3868 85.3152 73.0472C85.3152 70.7677 84.9901 69.8235 83.791 68.6206C83.1392 67.9667 82.4365 67.4836 81.9071 67.3256C81.3369 67.1556 79.2896 67.0739 75.6001 67.0739H70.1373V59.2155C70.1373 53.8162 70.0649 51.1966 69.9055 50.8439C69.7782 50.5615 69.4319 50.2292 69.1362 50.1056C68.761 49.9488 63.8291 49.8975 52.8386 49.9364L37.0789 49.9919L36.6867 50.4808C36.3665 50.88 36.2948 51.3065 36.2948 52.8101V54.6506L31.4235 54.6573C26.0649 54.6645 25.9726 54.6846 25.6214 55.9201C25.5129 56.3023 25.4241 58.9681 25.4241 61.8443V67.0739L24.655 67.0751C23.381 67.077 22.4517 67.4468 21.4225 68.3611C20.1557 69.4869 19.8321 70.2805 19.6928 72.603L19.5786 74.5088L18.9528 74.2017C17.6508 73.5631 17.6301 73.4317 17.6301 65.8419V58.9799L17.1265 58.4718C16.4806 57.8196 15.5907 57.8074 14.9994 58.4426C14.559 58.9159 14.5535 59.0122 14.5555 66.1554C14.5574 73.3279 14.5615 73.3977 15.0422 74.4243C15.6051 75.6258 16.3363 76.3666 17.6301 77.0456L18.553 77.5301L52.1905 77.5839C83.5256 77.634 85.895 77.6133 86.8065 77.2827C88.0755 76.8222 89.0738 75.978 89.7765 74.7713L90.3403 73.8031L90.3944 45.8589L90.4486 17.9147L89.9204 16.825C89.63 16.2256 89.018 15.4116 88.5604 15.0164C86.8685 13.5544 89.4946 13.6521 52.4104 13.6703C23.6458 13.6844 18.8451 13.7289 18.1192 13.9888ZM86.0111 17.0736C86.7999 17.4515 87.3662 18.3505 87.3662 19.2245V19.8656H52.4982H17.6301V19.234C17.6301 18.3203 18.1246 17.4925 18.9013 17.1062C19.5183 16.7993 22.5098 16.7689 52.4672 16.7645C81.4389 16.7604 85.4337 16.7972 86.0111 17.0736ZM26.6547 24.7313V26.2842H22.1424H17.6301V24.7313V23.1784H22.1424H26.6547V24.7313ZM48.1909 26.5006C48.1909 29.752 48.1803 29.8338 47.6874 30.3311L47.1841 30.8394H38.9886H30.7934L30.2624 30.2023C29.7414 29.5772 29.7313 29.5054 29.7313 26.3718V23.1784H38.9611H48.1909V26.5006ZM87.3662 24.7313V26.2842H69.4194H51.4726V24.7313V23.1784H69.4194H87.3662V24.7313ZM44.8686 35.1358L44.9308 36.2228H39.0744H33.2182V35.0807V33.9388L39.0124 33.9937L44.8067 34.0488L44.8686 35.1358ZM39.944 41.1404L39.8841 42.745L39.0124 42.8086L38.1407 42.8724V41.2039V39.5357H39.0723H40.0039L39.944 41.1404ZM66.9582 60.034V66.9703L47.832 67.0231L28.7058 67.0759V62.4162V57.7564H33.564C38.2695 57.7564 38.4369 57.7424 38.8967 57.3063C39.3219 56.903 39.3713 56.6696 39.3713 55.0631C39.3713 54.0771 39.4335 53.2075 39.5096 53.1308C39.5855 53.054 45.7926 53.0153 53.303 53.0445L66.9582 53.0977V60.034ZM81.6676 70.7534C82.0573 71.147 82.1455 71.4934 82.2076 72.8757L82.2821 74.5278H52.4982H22.7142L22.7897 72.8513C22.8588 71.3166 22.9138 71.1327 23.4407 70.6751L24.0163 70.1753L52.6089 70.2294L81.2018 70.2832L81.6676 70.7534ZM66.2967 79.8396C65.1317 80.2559 63.4703 81.8022 62.7953 83.0982C62.316 84.0185 62.2444 84.3979 62.2444 86.0193C62.2444 87.6407 62.316 88.0201 62.7953 88.9404C63.4941 90.2821 65.1419 91.7857 66.3806 92.2119C66.9077 92.3932 67.9917 92.5407 68.7894 92.5394C71.2886 92.5359 73.4088 91.1884 74.5508 88.8775C75.3396 87.2813 75.3948 84.8954 74.6775 83.403C73.9652 81.9207 72.9161 80.8285 71.5363 80.1323C70.4476 79.5832 70.0659 79.4994 68.72 79.5135C67.8639 79.5224 66.7734 79.6692 66.2967 79.8396ZM81.2869 79.9967C79.8169 80.6877 78.657 81.8142 77.9984 83.1907C77.5308 84.1678 77.4375 84.6382 77.4375 86.0193C77.4375 87.4003 77.5308 87.8708 77.9984 88.8479C79.0914 91.1323 81.2943 92.5359 83.7916 92.5394C85.6918 92.5421 86.9251 92.0943 88.1969 90.9401C90.2697 89.0586 90.9691 86.3079 90.0273 83.7417C89.4368 82.1327 87.7002 80.3425 86.2437 79.8416C84.7317 79.3215 82.5801 79.3888 81.2869 79.9967ZM70.3225 83.034C71.7404 83.9065 72.3451 85.3263 71.9568 86.8707C71.3819 89.157 68.568 90.1929 66.6591 88.8207C65.9027 88.277 65.2238 86.9519 65.2238 86.0193C65.2238 84.719 66.2608 83.2112 67.4709 82.7524C68.2007 82.4754 69.6471 82.6184 70.3225 83.034ZM85.9166 83.2141C86.6777 83.7612 87.3572 85.0842 87.3572 86.0193C87.3572 86.9519 86.6783 88.277 85.9219 88.8207C85.4938 89.1284 84.8596 89.3363 84.1736 89.3937C80.521 89.6995 79.0676 84.9304 82.2326 83.0243C83.2139 82.4333 84.9552 82.523 85.9166 83.2141ZM98.0648 98.1899C99.6975 98.9993 101.056 100.624 101.609 102.428L101.751 102.894H52.4982H3.24493L3.3803 102.428C3.82415 100.9 4.999 99.3287 6.31311 98.5061C7.93325 97.4917 5.82455 97.534 52.8058 97.5754L96.9037 97.6143L98.0648 98.1899Z"/>
</mask>
<path fill-rule="evenodd" clip-rule="evenodd" d="M14.7586 0.320294C11.5142 1.19655 8.95632 4.11042 8.39535 7.56925C8.27291 8.32355 8.19702 25.1351 8.1964 51.673L8.19517 94.5578L7.4775 94.6754C6.35413 94.8595 4.21221 96.0171 3.22093 96.976C1.3118 98.8227 0.276216 100.971 0.0536758 103.548C-0.0574918 104.834 -0.0298025 104.962 0.466145 105.463L0.997781 106H52.4982H103.999L104.502 105.492C105.064 104.924 105.131 104.253 104.8 102.456C104.163 98.985 101.05 95.5328 97.8695 94.7702L96.8057 94.5151L96.7521 58.0403C96.7 22.5028 96.6885 21.5543 96.3079 21.1296C95.7766 20.537 94.5439 20.537 94.0127 21.1296C93.632 21.5543 93.6206 22.5014 93.5691 57.9852L93.516 94.405H52.4965H11.4769L11.4789 50.9754L11.481 7.54586L11.9595 6.51059C12.4899 5.36309 13.7907 4.06466 14.935 3.53998C15.6204 3.22567 18.697 3.19772 52.4982 3.19772C86.2993 3.19772 89.3759 3.22567 90.0613 3.53998C91.2056 4.06466 92.5064 5.36309 93.0368 6.51059C93.4887 7.48788 93.5157 7.78335 93.5205 11.7905C93.5258 16.3771 93.63 16.9175 94.5718 17.2519C95.4339 17.5579 96.1752 17.2501 96.507 16.4486C96.8598 15.5961 96.9107 10.027 96.5864 7.75291C96.0669 4.10897 93.5541 1.20628 90.1434 0.309734C89.0598 0.024828 84.7743 -0.0101641 52.4038 0.00205208C20.9358 0.0138541 15.7308 0.0577496 14.7586 0.320294ZM18.1192 13.9888C16.9087 14.4221 15.5995 15.6396 15.0404 16.8517L14.5576 17.8986L14.5555 35.8143C14.5533 55.3064 14.5016 54.4367 15.6809 54.7355C16.239 54.8769 16.9602 54.5825 17.3671 54.0475C17.5568 53.798 17.6186 50.7903 17.6235 41.5545L17.6301 29.39H22.0999H26.5696L26.803 30.2709C27.1236 31.4807 28.1299 32.8162 29.0955 33.3135L29.901 33.7282L29.9699 36.1092C30.0624 39.2943 30.1608 39.404 33.0184 39.5034L35.0641 39.5744V42.2239C35.0641 45.9392 34.9534 45.8307 38.8405 45.9179L41.8339 45.985L42.4486 45.3645L43.0633 44.7439V42.1398V39.5357H44.6908C46.4362 39.5357 47.2811 39.3158 47.7063 38.7512C47.887 38.511 47.9749 37.6542 47.9793 36.0926L47.9858 33.7885L48.572 33.5433C49.528 33.1435 50.6721 31.7962 51.0743 30.5965L51.4443 29.4936L69.4053 29.4408L87.3662 29.3878V51.1224V72.8569L86.7505 73.5648C86.4121 73.9541 85.9506 74.3214 85.725 74.3808C85.3443 74.4814 85.3152 74.3868 85.3152 73.0472C85.3152 70.7677 84.9901 69.8235 83.791 68.6206C83.1392 67.9667 82.4365 67.4836 81.9071 67.3256C81.3369 67.1556 79.2896 67.0739 75.6001 67.0739H70.1373V59.2155C70.1373 53.8162 70.0649 51.1966 69.9055 50.8439C69.7782 50.5615 69.4319 50.2292 69.1362 50.1056C68.761 49.9488 63.8291 49.8975 52.8386 49.9364L37.0789 49.9919L36.6867 50.4808C36.3665 50.88 36.2948 51.3065 36.2948 52.8101V54.6506L31.4235 54.6573C26.0649 54.6645 25.9726 54.6846 25.6214 55.9201C25.5129 56.3023 25.4241 58.9681 25.4241 61.8443V67.0739L24.655 67.0751C23.381 67.077 22.4517 67.4468 21.4225 68.3611C20.1557 69.4869 19.8321 70.2805 19.6928 72.603L19.5786 74.5088L18.9528 74.2017C17.6508 73.5631 17.6301 73.4317 17.6301 65.8419V58.9799L17.1265 58.4718C16.4806 57.8196 15.5907 57.8074 14.9994 58.4426C14.559 58.9159 14.5535 59.0122 14.5555 66.1554C14.5574 73.3279 14.5615 73.3977 15.0422 74.4243C15.6051 75.6258 16.3363 76.3666 17.6301 77.0456L18.553 77.5301L52.1905 77.5839C83.5256 77.634 85.895 77.6133 86.8065 77.2827C88.0755 76.8222 89.0738 75.978 89.7765 74.7713L90.3403 73.8031L90.3944 45.8589L90.4486 17.9147L89.9204 16.825C89.63 16.2256 89.018 15.4116 88.5604 15.0164C86.8685 13.5544 89.4946 13.6521 52.4104 13.6703C23.6458 13.6844 18.8451 13.7289 18.1192 13.9888ZM86.0111 17.0736C86.7999 17.4515 87.3662 18.3505 87.3662 19.2245V19.8656H52.4982H17.6301V19.234C17.6301 18.3203 18.1246 17.4925 18.9013 17.1062C19.5183 16.7993 22.5098 16.7689 52.4672 16.7645C81.4389 16.7604 85.4337 16.7972 86.0111 17.0736ZM26.6547 24.7313V26.2842H22.1424H17.6301V24.7313V23.1784H22.1424H26.6547V24.7313ZM48.1909 26.5006C48.1909 29.752 48.1803 29.8338 47.6874 30.3311L47.1841 30.8394H38.9886H30.7934L30.2624 30.2023C29.7414 29.5772 29.7313 29.5054 29.7313 26.3718V23.1784H38.9611H48.1909V26.5006ZM87.3662 24.7313V26.2842H69.4194H51.4726V24.7313V23.1784H69.4194H87.3662V24.7313ZM44.8686 35.1358L44.9308 36.2228H39.0744H33.2182V35.0807V33.9388L39.0124 33.9937L44.8067 34.0488L44.8686 35.1358ZM39.944 41.1404L39.8841 42.745L39.0124 42.8086L38.1407 42.8724V41.2039V39.5357H39.0723H40.0039L39.944 41.1404ZM66.9582 60.034V66.9703L47.832 67.0231L28.7058 67.0759V62.4162V57.7564H33.564C38.2695 57.7564 38.4369 57.7424 38.8967 57.3063C39.3219 56.903 39.3713 56.6696 39.3713 55.0631C39.3713 54.0771 39.4335 53.2075 39.5096 53.1308C39.5855 53.054 45.7926 53.0153 53.303 53.0445L66.9582 53.0977V60.034ZM81.6676 70.7534C82.0573 71.147 82.1455 71.4934 82.2076 72.8757L82.2821 74.5278H52.4982H22.7142L22.7897 72.8513C22.8588 71.3166 22.9138 71.1327 23.4407 70.6751L24.0163 70.1753L52.6089 70.2294L81.2018 70.2832L81.6676 70.7534ZM66.2967 79.8396C65.1317 80.2559 63.4703 81.8022 62.7953 83.0982C62.316 84.0185 62.2444 84.3979 62.2444 86.0193C62.2444 87.6407 62.316 88.0201 62.7953 88.9404C63.4941 90.2821 65.1419 91.7857 66.3806 92.2119C66.9077 92.3932 67.9917 92.5407 68.7894 92.5394C71.2886 92.5359 73.4088 91.1884 74.5508 88.8775C75.3396 87.2813 75.3948 84.8954 74.6775 83.403C73.9652 81.9207 72.9161 80.8285 71.5363 80.1323C70.4476 79.5832 70.0659 79.4994 68.72 79.5135C67.8639 79.5224 66.7734 79.6692 66.2967 79.8396ZM81.2869 79.9967C79.8169 80.6877 78.657 81.8142 77.9984 83.1907C77.5308 84.1678 77.4375 84.6382 77.4375 86.0193C77.4375 87.4003 77.5308 87.8708 77.9984 88.8479C79.0914 91.1323 81.2943 92.5359 83.7916 92.5394C85.6918 92.5421 86.9251 92.0943 88.1969 90.9401C90.2697 89.0586 90.9691 86.3079 90.0273 83.7417C89.4368 82.1327 87.7002 80.3425 86.2437 79.8416C84.7317 79.3215 82.5801 79.3888 81.2869 79.9967ZM70.3225 83.034C71.7404 83.9065 72.3451 85.3263 71.9568 86.8707C71.3819 89.157 68.568 90.1929 66.6591 88.8207C65.9027 88.277 65.2238 86.9519 65.2238 86.0193C65.2238 84.719 66.2608 83.2112 67.4709 82.7524C68.2007 82.4754 69.6471 82.6184 70.3225 83.034ZM85.9166 83.2141C86.6777 83.7612 87.3572 85.0842 87.3572 86.0193C87.3572 86.9519 86.6783 88.277 85.9219 88.8207C85.4938 89.1284 84.8596 89.3363 84.1736 89.3937C80.521 89.6995 79.0676 84.9304 82.2326 83.0243C83.2139 82.4333 84.9552 82.523 85.9166 83.2141ZM98.0648 98.1899C99.6975 98.9993 101.056 100.624 101.609 102.428L101.751 102.894H52.4982H3.24493L3.3803 102.428C3.82415 100.9 4.999 99.3287 6.31311 98.5061C7.93325 97.4917 5.82455 97.534 52.8058 97.5754L96.9037 97.6143L98.0648 98.1899Z" stroke="black" stroke-width="4" mask="url(#path-1-inside-1_240_2120)"/>
</g>
</svg>

<svg width="105" height="106" fill="none" xmlns="http://www.w3.org/2000/svg"><g opacity=".6"><mask id="path-1-inside-1_240_2120" fill="#fff"><path fill-rule="evenodd" clip-rule="evenodd" d="M14.759.32c-3.245.877-5.803 3.79-6.364 7.25-.122.754-.198 17.565-.199 44.103v42.885l-.718.117c-1.124.184-3.266 1.342-4.257 2.301-1.91 1.847-2.945 3.995-3.167 6.572-.111 1.286-.084 1.414.412 1.915l.532.537h103.001l.503-.508c.562-.568.629-1.239.298-3.036-.637-3.471-3.75-6.923-6.93-7.686l-1.064-.255-.054-36.475c-.052-35.537-.063-36.486-.444-36.91-.531-.593-1.764-.593-2.295 0-.381.424-.392 1.371-.444 36.855l-.053 36.42h-82.04l.003-43.43.002-43.43.479-1.034c.53-1.148 1.83-2.446 2.975-2.971.685-.314 3.762-.342 37.563-.342s36.878.028 37.563.342c1.145.525 2.445 1.823 2.976 2.97.452.978.479 1.273.483 5.28.006 4.587.11 5.128 1.052 5.462.862.306 1.603-.002 1.935-.803.353-.853.404-6.422.08-8.696-.52-3.644-3.033-6.547-6.444-7.443-1.083-.285-5.369-.32-37.74-.308C20.937.014 15.732.058 14.76.32zm3.36 13.669c-1.21.433-2.52 1.65-3.079 2.863l-.482 1.047-.002 17.915c-.003 19.492-.054 18.623 1.125 18.922.558.14 1.28-.153 1.686-.688.19-.25.252-3.258.256-12.494l.007-12.164h8.94l.233.88c.32 1.21 1.327 2.546 2.293 3.043l.805.415.069 2.381c.092 3.185.19 3.295 3.048 3.394l2.046.071v2.65c0 3.715-.11 3.607 3.776 3.694l2.994.067.615-.62.614-.621v-5.208h1.628c1.745 0 2.59-.22 3.015-.785.181-.24.269-1.097.273-2.658l.007-2.305.586-.245c.956-.4 2.1-1.747 2.502-2.947l.37-1.102 17.961-.053 17.961-.053v43.469l-.615.708c-.339.39-.8.756-1.026.816-.38.1-.41.006-.41-1.334 0-2.28-.325-3.224-1.524-4.426-.652-.654-1.355-1.137-1.884-1.295-.57-.17-2.617-.252-6.307-.252h-5.463v-7.858c0-5.4-.072-8.02-.231-8.372-.128-.282-.474-.615-.77-.738-.375-.157-5.307-.209-16.297-.17l-15.76.056-.392.489c-.32.399-.392.825-.392 2.33v1.84l-4.872.006c-5.358.008-5.45.028-5.802 1.263-.108.382-.197 3.048-.197 5.924v5.23l-.769.001c-1.274.002-2.203.372-3.233 1.286-1.266 1.126-1.59 1.92-1.73 4.242l-.113 1.906-.626-.307c-1.302-.639-1.323-.77-1.323-8.36V58.98l-.503-.508c-.646-.652-1.536-.665-2.128-.03-.44.474-.446.57-.444 7.713.002 7.173.007 7.243.487 8.27.563 1.2 1.294 1.942 2.588 2.62l.923.485 33.638.054c31.335.05 33.704.03 34.615-.301 1.27-.46 2.268-1.305 2.97-2.512l.564-.968.054-27.944.055-27.944-.529-1.09c-.29-.6-.902-1.413-1.36-1.809-1.692-1.462.935-1.364-36.15-1.346-28.764.014-33.565.059-34.29.319zm67.892 3.085c.789.377 1.355 1.276 1.355 2.15v.642H17.63v-.632c0-.914.495-1.742 1.271-2.128.617-.307 3.609-.337 33.566-.341 28.972-.005 32.967.032 33.544.309zM26.655 24.73v1.553H17.63v-3.106h9.025v1.553zm21.536 1.77c0 3.251-.01 3.333-.504 3.83l-.503.508H30.793l-.53-.637c-.522-.625-.532-.697-.532-3.83v-3.194h18.46V26.5zm39.175-1.77v1.553H51.473v-3.106h35.893v1.553zM44.87 35.136l.062 1.087H33.218v-2.284l5.794.055 5.795.055.062 1.087zm-4.925 6.004l-.06 1.605-.872.064-.871.063v-3.336h1.863l-.06 1.604zm27.014 18.894v6.936l-19.126.053-19.126.053v-9.32h4.858c4.706 0 4.873-.014 5.333-.45.425-.403.474-.636.474-2.243 0-.986.063-1.855.139-1.932.076-.077 6.283-.116 13.793-.087l13.655.054v6.936zm14.71 10.72c.39.393.477.74.54 2.122l.074 1.652H22.714l.076-1.677c.069-1.534.124-1.718.65-2.176l.576-.5 28.593.054 28.593.054.466.47zM66.297 79.84c-1.165.416-2.827 1.962-3.502 3.258-.479.92-.55 1.3-.55 2.921 0 1.622.071 2.001.55 2.921.7 1.342 2.347 2.846 3.586 3.272.527.181 1.61.329 2.408.327 2.5-.003 4.62-1.35 5.762-3.662.789-1.596.844-3.982.126-5.474-.712-1.482-1.76-2.575-3.14-3.27-1.09-.55-1.471-.634-2.817-.62-.856.01-1.947.156-2.423.327zm14.99.157c-1.47.69-2.63 1.817-3.289 3.194-.467.977-.56 1.447-.56 2.828 0 1.381.093 1.852.56 2.829 1.093 2.284 3.296 3.688 5.794 3.691 1.9.003 3.133-.445 4.405-1.599 2.073-1.881 2.772-4.632 1.83-7.198-.59-1.61-2.327-3.4-3.783-3.9-1.512-.52-3.664-.453-4.957.155zm-10.965 3.037c1.418.872 2.023 2.292 1.635 3.837-.575 2.286-3.389 3.322-5.298 1.95-.756-.544-1.435-1.87-1.435-2.802 0-1.3 1.037-2.808 2.247-3.267.73-.277 2.176-.134 2.852.282zm15.595.18c.76.547 1.44 1.87 1.44 2.805 0 .933-.679 2.258-1.435 2.802-.428.307-1.062.515-1.748.573-3.653.305-5.106-4.464-1.941-6.37.98-.59 2.722-.501 3.684.19zM98.065 98.19c1.633.81 2.991 2.434 3.544 4.238l.142.466H3.245l.135-.466c.444-1.528 1.619-3.1 2.933-3.922 1.62-1.014-.488-.972 46.493-.93l44.098.038 1.16.576z"/></mask><path clip-rule="evenodd" d="M14.759.32c-3.245.877-5.803 3.79-6.364 7.25-.122.754-.198 17.565-.199 44.103v42.885l-.718.117c-1.124.184-3.266 1.342-4.257 2.301-1.91 1.847-2.945 3.995-3.167 6.572-.111 1.286-.084 1.414.412 1.915l.532.537h103.001l.503-.508c.562-.568.629-1.239.298-3.036-.637-3.471-3.75-6.923-6.93-7.686l-1.064-.255-.054-36.475c-.052-35.537-.063-36.486-.444-36.91-.531-.593-1.764-.593-2.295 0-.381.424-.392 1.371-.444 36.855l-.053 36.42h-82.04l.003-43.43.002-43.43.479-1.034c.53-1.148 1.83-2.446 2.975-2.971.685-.314 3.762-.342 37.563-.342s36.878.028 37.563.342c1.145.525 2.445 1.823 2.976 2.97.452.978.479 1.273.483 5.28.006 4.587.11 5.128 1.052 5.462.862.306 1.603-.002 1.935-.803.353-.853.404-6.422.08-8.696-.52-3.644-3.033-6.547-6.444-7.443-1.083-.285-5.369-.32-37.74-.308C20.937.014 15.732.058 14.76.32zm3.36 13.669c-1.21.433-2.52 1.65-3.079 2.863l-.482 1.047-.002 17.915c-.003 19.492-.054 18.623 1.125 18.922.558.14 1.28-.153 1.686-.688.19-.25.252-3.258.256-12.494l.007-12.164h8.94l.233.88c.32 1.21 1.327 2.546 2.293 3.043l.805.415.069 2.381c.092 3.185.19 3.295 3.048 3.394l2.046.071v2.65c0 3.715-.11 3.607 3.776 3.694l2.994.067.615-.62.614-.621v-5.208h1.628c1.745 0 2.59-.22 3.015-.785.181-.24.269-1.097.273-2.658l.007-2.305.586-.245c.956-.4 2.1-1.747 2.502-2.947l.37-1.102 17.961-.053 17.961-.053v43.469l-.615.708c-.339.39-.8.756-1.026.816-.38.1-.41.006-.41-1.334 0-2.28-.325-3.224-1.524-4.426-.652-.654-1.355-1.137-1.884-1.295-.57-.17-2.617-.252-6.307-.252h-5.463v-7.858c0-5.4-.072-8.02-.231-8.372-.128-.282-.474-.615-.77-.738-.375-.157-5.307-.209-16.297-.17l-15.76.056-.392.489c-.32.399-.392.825-.392 2.33v1.84l-4.872.006c-5.358.008-5.45.028-5.802 1.263-.108.382-.197 3.048-.197 5.924v5.23l-.769.001c-1.274.002-2.203.372-3.233 1.286-1.266 1.126-1.59 1.92-1.73 4.242l-.113 1.906-.626-.307c-1.302-.639-1.323-.77-1.323-8.36V58.98l-.503-.508c-.646-.652-1.536-.665-2.128-.03-.44.474-.446.57-.444 7.713.002 7.173.007 7.243.487 8.27.563 1.2 1.294 1.942 2.588 2.62l.923.485 33.638.054c31.335.05 33.704.03 34.615-.301 1.27-.46 2.268-1.305 2.97-2.512l.564-.968.054-27.944.055-27.944-.529-1.09c-.29-.6-.902-1.413-1.36-1.809-1.692-1.462.935-1.364-36.15-1.346-28.764.014-33.565.059-34.29.319zm67.892 3.085c.789.377 1.355 1.276 1.355 2.15v.642H17.63v-.632c0-.914.495-1.742 1.271-2.128.617-.307 3.609-.337 33.566-.341 28.972-.005 32.967.032 33.544.309zM26.655 24.73v1.553H17.63v-3.106h9.025v1.553zm21.536 1.77c0 3.251-.01 3.333-.504 3.83l-.503.508H30.793l-.53-.637c-.522-.625-.532-.697-.532-3.83v-3.194h18.46V26.5zm39.175-1.77v1.553H51.473v-3.106h35.893v1.553zM44.87 35.136l.062 1.087H33.218v-2.284l5.794.055 5.795.055.062 1.087zm-4.925 6.004l-.06 1.605-.872.064-.871.063v-3.336h1.863l-.06 1.604zm27.014 18.894v6.936l-19.126.053-19.126.053v-9.32h4.858c4.706 0 4.873-.014 5.333-.45.425-.403.474-.636.474-2.243 0-.986.063-1.855.139-1.932.076-.077 6.283-.116 13.793-.087l13.655.054v6.936zm14.71 10.72c.39.393.477.74.54 2.122l.074 1.652H22.714l.076-1.677c.069-1.534.124-1.718.65-2.176l.576-.5 28.593.054 28.593.054.466.47zM66.297 79.84c-1.165.416-2.827 1.962-3.502 3.258-.479.92-.55 1.3-.55 2.921 0 1.622.071 2.001.55 2.921.7 1.342 2.347 2.846 3.586 3.272.527.181 1.61.329 2.408.327 2.5-.003 4.62-1.35 5.762-3.662.789-1.596.844-3.982.126-5.474-.712-1.482-1.76-2.575-3.14-3.27-1.09-.55-1.471-.634-2.817-.62-.856.01-1.947.156-2.423.327zm14.99.157c-1.47.69-2.63 1.817-3.289 3.194-.467.977-.56 1.447-.56 2.828 0 1.381.093 1.852.56 2.829 1.093 2.284 3.296 3.688 5.794 3.691 1.9.003 3.133-.445 4.405-1.599 2.073-1.881 2.772-4.632 1.83-7.198-.59-1.61-2.327-3.4-3.783-3.9-1.512-.52-3.664-.453-4.957.155zm-10.965 3.037c1.418.872 2.023 2.292 1.635 3.837-.575 2.286-3.389 3.322-5.298 1.95-.756-.544-1.435-1.87-1.435-2.802 0-1.3 1.037-2.808 2.247-3.267.73-.277 2.176-.134 2.852.282zm15.595.18c.76.547 1.44 1.87 1.44 2.805 0 .933-.679 2.258-1.435 2.802-.428.307-1.062.515-1.748.573-3.653.305-5.106-4.464-1.941-6.37.98-.59 2.722-.501 3.684.19zM98.065 98.19c1.633.81 2.991 2.434 3.544 4.238l.142.466H3.245l.135-.466c.444-1.528 1.619-3.1 2.933-3.922 1.62-1.014-.488-.972 46.493-.93l44.098.038 1.16.576z" stroke="#000" stroke-width="4" mask="url(#path-1-inside-1_240_2120)"/></g></svg>
